icons/ShoppingCart.svg

<svg width="24" height="24" viewBox="0 0 24 24" fill="none" xmlns="http://www.w3.org/2000/svg">
<path fill-rule="evenodd" clip-rule="evenodd" d="M1.25,3c0,-0.41421 0.33579,-0.75 0.75,-0.75h1.48308c1.23322,0 2.31564,0.82097 2.64815,2.00852l0.41762,1.49148h14.45115c0.231,0 0.449,0.1064 0.5912,0.28844c0.1421,0.18204 0.1924,0.41941 0.1364,0.64346l-1.657,6.6281c-0.2827,1.1306 -1.2471,1.9602 -2.4072,2.0707l-8.75187,0.8335l-0.76336,1.0687c0.22587,0.2822 0.39728,0.6099 0.49831,0.9671h5.70702c0.3265,-1.1543 1.3877,-2 2.6465,-2c1.5188,0 2.75,1.2312 2.75,2.75c0,1.5188 -1.2312,2.75 -2.75,2.75c-1.2588,0 -2.32,-0.8457 -2.6465,-2h-5.70702c-0.32646,1.1543 -1.3877,2 -2.64648,2c-1.51878,0 -2.75,-1.2312 -2.75,-2.75c0,-1.5188 1.23122,-2.75 2.75,-2.75c0.32564,0 0.63806,0.0566 0.92796,0.1605l0.75297,-1.0542l-2.99415,-10.69334c-0.15114,-0.53979 -0.64315,-0.91296 -1.2037,-0.91296h-1.48308c-0.41421,0 -0.75,-0.33579 -0.75,-0.75zM7.25,19c0,-0.6904 -0.55964,-1.25 -1.25,-1.25c-0.69036,0 -1.25,0.5596 -1.25,1.25c0,0.6904 0.55964,1.25 1.25,1.25c0.69036,0 1.25,-0.5596 1.25,-1.25zM15.75,19c0,0.6904 0.5596,1.25 1.25,1.25c0.6904,0 1.25,-0.5596 1.25,-1.25c0,-0.6904 -0.5596,-1.25 -1.25,-1.25c-0.6904,0 -1.25,0.5596 -1.25,1.25zM9.05314,14.6939l8.46806,-0.8065c0.5273,-0.0502 0.9657,-0.4273 1.0942,-0.9412l1.424,-5.6962h-13.07055z" fill="#002B51"/>
</svg>

<svg width="24" height="24" viewBox="0 0 24 24" fill="none" xmlns="http://www.w3.org/2000/svg">
<path fill-rule="evenodd" clip-rule="evenodd" d="M1.25 3C1.25 2.58579 1.58579 2.25 2 2.25H3.48308C4.7163 2.25 5.79872 3.07097 6.13123 4.25852L6.54885 5.75H21C21.231 5.75 21.449 5.8564 21.5912 6.03844C21.7333 6.22048 21.7836 6.45785 21.7276 6.6819L20.0706 13.31C19.7879 14.4406 18.8235 15.2702 17.6634 15.3807L8.91153 16.2142L8.14817 17.2829C8.37404 17.5651 8.54545 17.8928 8.64648 18.25H14.3535C14.68 17.0957 15.7412 16.25 17 16.25C18.5188 16.25 19.75 17.4812 19.75 19C19.75 20.5188 18.5188 21.75 17 21.75C15.7412 21.75 14.68 20.9043 14.3535 19.75H8.64648C8.32002 20.9043 7.25878 21.75 6 21.75C4.48122 21.75 3.25 20.5188 3.25 19C3.25 17.4812 4.48122 16.25 6 16.25C6.32564 16.25 6.63806 16.3066 6.92796 16.4105L7.68093 15.3563L4.68678 4.66296C4.53564 4.12317 4.04363 3.75 3.48308 3.75H2C1.58579 3.75 1.25 3.41421 1.25 3ZM7.25 19C7.25 18.3096 6.69036 17.75 6 17.75C5.30964 17.75 4.75 18.3096 4.75 19C4.75 19.6904 5.30964 20.25 6 20.25C6.69036 20.25 7.25 19.6904 7.25 19ZM15.75 19C15.75 19.6904 16.3096 20.25 17 20.25C17.6904 20.25 18.25 19.6904 18.25 19C18.25 18.3096 17.6904 17.75 17 17.75C16.3096 17.75 15.75 18.3096 15.75 19ZM9.05314 14.6939L17.5212 13.8874C18.0485 13.8372 18.4869 13.4601 18.6154 12.9462L20.0394 7.25H6.96885L9.05314 14.6939Z" fill="#002B51"/>
</svg>
